public/src/images/icons/purple-user.svg

<svg width="22" height="22" viewBox="0 0 22 22" fill="none" xmlns="http://www.w3.org/2000/svg">
<path d="M3.9375 15.1875C6.39583 14.1875 8.75 13.6875 11 13.6875C13.25 13.6875 15.5833 14.1875 18 15.1875C20.4583 16.1458 21.6875 17.4167 21.6875 19V21.6875H0.3125V19C0.3125 17.4167 1.52083 16.1458 3.9375 15.1875ZM14.75 9.4375C13.7083 10.4792 12.4583 11 11 11C9.54167 11 8.29167 10.4792 7.25 9.4375C6.20833 8.39583 5.6875 7.14583 5.6875 5.6875C5.6875 4.22917 6.20833 2.97917 7.25 1.9375C8.29167 0.854167 9.54167 0.3125 11 0.3125C12.4583 0.3125 13.7083 0.854167 14.75 1.9375C15.7917 2.97917 16.3125 4.22917 16.3125 5.6875C16.3125 7.14583 15.7917 8.39583 14.75 9.4375Z"/>
</svg>

<svg width="22" height="22" fill="none" xmlns="http://www.w3.org/2000/svg"><path d="M3.938 15.188c2.458-1 4.812-1.5 7.062-1.5s4.583.5 7 1.5c2.458.958 3.688 2.229 3.688 3.812v2.688H.313V19c0-1.583 1.208-2.854 3.624-3.813zm10.812-5.75C13.708 10.479 12.458 11 11 11c-1.458 0-2.708-.52-3.75-1.563-1.042-1.041-1.563-2.291-1.563-3.75 0-1.458.521-2.708 1.563-3.75C8.292.855 9.542.313 11 .313c1.458 0 2.708.542 3.75 1.625 1.042 1.042 1.563 2.292 1.563 3.75 0 1.459-.521 2.709-1.563 3.75z"/></svg>
